!!!COM: Mozart, Wolfgang Amadeus
!!!OTL: Musikalische Würfelspiele, Kontre-Tänze
!!!SCA: K<sup>6</sup> Anh. C30.01 (K<sup>3</sup> Anh. 294d)
**kern	**kern
*staff2	*staff2
*clefF4	*clefG2
*M2/4	*M2/4
*MM110	*MM110
*>[A,A1,A,A2,B]	*>[A,A1,A,A2,B]
*>norep[A,A2,B]	*>norep[A,A2,B]
*>A	*>A
=36	=36
4C	8cc
.	16c
.	16e
4C	8g
.	16cc
.	16ee
=64	=64
4C	16gg
.	16ee
.	16ff
.	16dd
4r	16cc
.	16gg
.	16ee
.	16cc
=40	=40
8G	16ff
.	16ee
8GG	16dd
.	16cc
8GG	16b
.	16cc
8GG	16dd
.	16b
=139	=139
16C	8cc
16G	.
16E	8ee
16G	.
16C	4g
16G	.
16E	.
16G	.
=82	=82
16D	4dd
16F#	.
16A	.
16G	.
16F#	8dd
16D	.
16E	8dd
16F#	.
=153	=153
4G	16gg
.	16aa
.	16bb
.	16ccc
4GG	16ddd
.	16bb
.	16aa
.	16gg
=23	=23
4C	16ee
.	16cc
.	16ee
.	16cc
4D	8a
.	8ff#
=115	=115
*>A1	*>A1
4GG	4g 4b 4gg
16G	4r
16F	.
16E	.
16D	.
=115:|!	=115:|!
*>A2	*>A2
4GG	4g 4b 4gg
16GG	4r
16AA	.
16BB	.
16C#	.
=66||	=66||
*>B	*>B
4D	8ff#
.	16ff#
.	16aa
4D	8ddd
.	16aa
.	16ff#
=157	=157
4G	16gg
.	16aa
.	16bb
.	16ccc
4GG	4ddd
=38	=38
8C	16cc
.	16ccc
8r	16gg
.	16ee
8C	16cc
.	16gg
8r	16ee
.	16cc
=19	=19
4GG	16dd
.	16b
.	16cc
.	16a
4r	16g
.	16gg
.	16ff
.	16dd
=42	=42
4C	8cc
.	16cc
.	16ee
4r	8gg
.	16gg
.	16ee
=103	=103
4C	16gg
.	16ccc
.	16gg
.	16ff
4r	16ee
.	16cc
.	16ee
.	16gg
=108	=108
4G	16ff
.	16aa
.	16ff
.	16dd
4GG	16b
.	16dd
.	16b
.	16g
=41	=41
4C	4cc
4CC	4c
==	==
*-	*-
